X: 74
T: The Craig of Barns Reel
T: Reel, A Dorian
L: 1/16
M: C|
K: A Dorian
|: g2| e4d2B2 A4A2B2| G4B2G2 B2c2d2g2| e4d2B2 A4A2g2| f4e2d2 e2A2A2:| 
a2| g2a2b2g2 a4b2a2| g2a2b2a2 g2e2d2e2| g2a2b2g2 a4b2a2| g2e2d2B2 e2A2A2a2| 
g2a2b2g2 a4b2a2| g2a2b2a2 g2e2d2e2| g2e2d2B2 d2e2g2a2| g2e2d2B2 e2A2A2|| 
D: Wendy MacIsaac, That's What You Get, WMT004
D: Glenn Graham/Rodney MacDonald, Traditionally Rockin', TR1 (played as a Strathspey)
